gtk-icons/Papirus-GTK/16x16/actions/format-text-capitalize.svg

<?xml version="1.0" encoding="UTF-8" standalone="no"?>
<!-- Created with Inkscape (http://www.inkscape.org/) -->

<svg
   xmlns:dc="http://purl.org/dc/elements/1.1/"
   xmlns:cc="http://creativecommons.org/ns#"
   xmlns:rdf="http://www.w3.org/1999/02/22-rdf-syntax-ns#"
   xmlns:svg="http://www.w3.org/2000/svg"
   xmlns="http://www.w3.org/2000/svg"
   xmlns:sodipodi="http://sodipodi.sourceforge.net/DTD/sodipodi-0.dtd"
   xmlns:inkscape="http://www.inkscape.org/namespaces/inkscape"
   width="16"
   height="16"
   id="svg3049"
   version="1.1"
   inkscape:version="0.91 r13725"
   sodipodi:docname="format-text-capitalize.svg"
   inkscape:export-filename="/home/uri/.kde/share/icons/NITRUX-KDE/16x16/actions/view-right-new.png"
   inkscape:export-xdpi="30"
   inkscape:export-ydpi="30">
  <defs
     id="defs3051">
    <style
       type="text/css"
       id="current-color-scheme">
      .ColorScheme-Text {
        color:#4d4d4d;
      }
      .ColorScheme-Background {
        color:#eff0f1;
      }
      .ColorScheme-Highlight {
        color:#3daee9;
      }
      .ColorScheme-ViewText {
        color:#31363b;
      }
      .ColorScheme-ViewBackground {
        color:#fcfcfc;
      }
      .ColorScheme-ViewHover {
        color:#93cee9;
      }
      .ColorScheme-ViewFocus{
        color:#3daee9;
      }
      .ColorScheme-ButtonText {
        color:#31363b;
      }
      .ColorScheme-ButtonBackground {
        color:#eff0f1;
      }
      .ColorScheme-ButtonHover {
        color:#93cee9;
      }
      .ColorScheme-ButtonFocus{
        color:#3daee9;
      }
      </style>
    <style
       id="current-color-scheme-6"
       type="text/css">
      .ColorScheme-Text {
        color:#4d4d4d;
      }
      .ColorScheme-Background {
        color:#eff0f1;
      }
      .ColorScheme-Highlight {
        color:#3daee9;
      }
      .ColorScheme-ViewText {
        color:#31363b;
      }
      .ColorScheme-ViewBackground {
        color:#fcfcfc;
      }
      .ColorScheme-ViewHover {
        color:#93cee9;
      }
      .ColorScheme-ViewFocus{
        color:#3daee9;
      }
      .ColorScheme-ButtonText {
        color:#31363b;
      }
      .ColorScheme-ButtonBackground {
        color:#eff0f1;
      }
      .ColorScheme-ButtonHover {
        color:#93cee9;
      }
      .ColorScheme-ButtonFocus{
        color:#3daee9;
      }
      </style>
    <style
       id="current-color-scheme-8"
       type="text/css">
      .ColorScheme-Text {
        color:#4d4d4d;
      }
      .ColorScheme-Background {
        color:#eff0f1;
      }
      .ColorScheme-Highlight {
        color:#3daee9;
      }
      .ColorScheme-ViewText {
        color:#31363b;
      }
      .ColorScheme-ViewBackground {
        color:#fcfcfc;
      }
      .ColorScheme-ViewHover {
        color:#93cee9;
      }
      .ColorScheme-ViewFocus{
        color:#3daee9;
      }
      .ColorScheme-ButtonText {
        color:#31363b;
      }
      .ColorScheme-ButtonBackground {
        color:#eff0f1;
      }
      .ColorScheme-ButtonHover {
        color:#93cee9;
      }
      .ColorScheme-ButtonFocus{
        color:#3daee9;
      }
      </style>
  </defs>
  <sodipodi:namedview
     id="base"
     pagecolor="#ffffff"
     bordercolor="#666666"
     borderopacity="1.0"
     inkscape:pageopacity="0.0"
     inkscape:pageshadow="2"
     inkscape:zoom="26.516492"
     inkscape:cx="0.59274903"
     inkscape:cy="4.2327739"
     inkscape:document-units="px"
     inkscape:current-layer="layer1"
     showgrid="false"
     fit-margin-top="0"
     fit-margin-left="0"
     fit-margin-right="0"
     fit-margin-bottom="0"
     inkscape:window-width="1600"
     inkscape:window-height="847"
     inkscape:window-x="0"
     inkscape:window-y="30"
     inkscape:window-maximized="1"
     inkscape:showpageshadow="false"
     borderlayer="true"
     inkscape:snap-bbox="true"
     inkscape:snap-global="true"
     inkscape:object-nodes="true"
     showguides="false">
    <inkscape:grid
       type="xygrid"
       id="grid4085" />
    <sodipodi:guide
       position="2.0000044,14.00003"
       orientation="12,0"
       id="guide4075" />
    <sodipodi:guide
       position="2.0000044,2.0000296"
       orientation="4.2285741e-06,1"
       id="guide4077" />
    <sodipodi:guide
       position="14,9"
       orientation="-12,0"
       id="guide4079" />
    <sodipodi:guide
       position="11,14"
       orientation="0,-12"
       id="guide4081" />
  </sodipodi:namedview>
  <metadata
     id="metadata3054">
    <rdf:RDF>
      <cc:Work
         rdf:about="">
        <dc:format>image/svg+xml</dc:format>
        <dc:type
           rdf:resource="http://purl.org/dc/dcmitype/StillImage" />
        <dc:title></dc:title>
      </cc:Work>
    </rdf:RDF>
  </metadata>
  <g
     inkscape:label="Capa 1"
     inkscape:groupmode="layer"
     id="layer1"
     transform="translate(-421.71429,-531.79074)">
    <rect
       y="534.79071"
       x="417.71429"
       height="10.999983"
       width="0"
       id="rect4035"
       style="fill:#4d4d4d;fill-opacity:1;stroke:none" />
    <rect
       y="535.05664"
       x="411.57404"
       height="10.999983"
       width="0"
       id="rect4035-2"
       style="fill:#4d4d4d;fill-opacity:1;stroke:none" />
    <rect
       y="533.00531"
       x="429.61481"
       height="10.999983"
       width="0"
       id="rect4035-5"
       style="fill:#4d4d4d;fill-opacity:1;stroke:none" />
    <rect
       y="535.05664"
       x="411.57404"
       height="10.999983"
       width="0"
       id="rect4035-8"
       style="fill:#4d4d4d;fill-opacity:1;stroke:none" />
    <rect
       y="535.05664"
       x="411.57404"
       height="10.999983"
       width="0"
       id="rect4035-59"
       style="fill:#4d4d4d;fill-opacity:1;stroke:none" />
    <text
       xml:space="preserve"
       style="font-style:normal;font-weight:normal;font-size:9px;line-height:125%;font-family:Sans;letter-spacing:0px;word-spacing:0px;fill:#4d4d4d;fill-opacity:1;stroke:none"
       x="427.01004"
       y="547.8139"
       id="text3781"
       sodipodi:linespacing="125%"><tspan
         y="547.8139"
         x="427.01004"
         sodipodi:role="line"
         id="tspan3783" /></text>
    <text
       xml:space="preserve"
       style="font-style:normal;font-weight:normal;font-size:9px;line-height:125%;font-family:Sans;letter-spacing:0px;word-spacing:0px;fill:#4d4d4d;fill-opacity:1;stroke:none"
       x="427.74673"
       y="541.95062"
       id="text3781-8"
       sodipodi:linespacing="125%"><tspan
         y="541.95062"
         x="427.74673"
         sodipodi:role="line"
         id="tspan3783-1" /></text>
    <text
       xml:space="preserve"
       style="font-style:normal;font-weight:normal;font-size:9px;line-height:125%;font-family:Sans;letter-spacing:0px;word-spacing:0px;fill:#4d4d4d;fill-opacity:1;stroke:none"
       x="421.01004"
       y="548.81396"
       id="text3781-4"
       sodipodi:linespacing="125%"><tspan
         y="548.81396"
         x="421.01004"
         sodipodi:role="line"
         id="tspan3783-13" /></text>
    <rect
       y="535.05664"
       x="411.57404"
       height="10.999983"
       width="0"
       id="rect4035-9"
       style="fill:#4d4d4d;fill-opacity:1;stroke:none" />
    <rect
       y="533.00531"
       x="429.61481"
       height="10.999983"
       width="0"
       id="rect4035-5-7"
       style="fill:#4d4d4d;fill-opacity:1;stroke:none" />
    <rect
       y="535.05664"
       x="391.57404"
       height="10.999983"
       width="0"
       id="rect4035-9-0"
       style="fill:#4d4d4d;fill-opacity:1;stroke:none" />
    <rect
       y="533.00531"
       x="409.61481"
       height="10.999983"
       width="0"
       id="rect4035-5-7-5"
       style="fill:#4d4d4d;fill-opacity:1;stroke:none" />
    <rect
       y="512.79065"
       x="409.71429"
       height="10.999983"
       width="0"
       id="rect4035-90"
       style="fill:#4d4d4d;fill-opacity:1;stroke:none" />
    <path
       style="opacity:0.5;fill:#000000;fill-opacity:1;stroke:none;stroke-width:2;stroke-linecap:square;stroke-miterlimit:4;stroke-dasharray:none;stroke-opacity:1"
       d="M 4.5 2 L 2 5 L 7 5 L 4.5 2 z M 9 5 L 9 11 L 9 14 L 10 14 L 10 13.230469 A 2.9999999 3.0000001 0 0 0 12 14 A 2.9999999 3.0000001 0 0 0 15 11 A 2.9999999 3.0000001 0 0 0 12 8 A 2.9999999 3.0000001 0 0 0 10 8.7675781 L 10 5 L 9 5 z M 3.8867188 6 L 1 14 L 2.1660156 14 L 3.1601562 11.714844 L 5.9394531 11.714844 L 6.8339844 14 L 8 14 L 5.3554688 6 L 3.8867188 6 z M 4.6210938 7.2402344 L 5.7148438 10.572266 L 3.4121094 10.572266 L 4.6210938 7.2402344 z M 12 9 A 2 2.0000001 0 0 1 14 11 A 2 2.0000001 0 0 1 12 13 A 2 2.0000001 0 0 1 10 11 A 2 2.0000001 0 0 1 12 9 z "
       transform="translate(421.71429,531.79074)"
       id="rect4163" />
    <rect
       style="fill:#4d4d4d;fill-opacity:1;stroke:none"
       id="rect4035-7"
       width="0"
       height="10.999983"
       x="416.71429"
       y="534.79071" />
    <rect
       style="fill:#4d4d4d;fill-opacity:1;stroke:none"
       id="rect4035-2-5"
       width="0"
       height="10.999983"
       x="410.57404"
       y="535.0567" />
    <rect
       style="fill:#4d4d4d;fill-opacity:1;stroke:none"
       id="rect4035-5-3"
       width="0"
       height="10.999983"
       x="428.61481"
       y="533.00537" />
    <rect
       style="fill:#4d4d4d;fill-opacity:1;stroke:none"
       id="rect4035-8-9"
       width="0"
       height="10.999983"
       x="410.57404"
       y="535.0567" />
    <rect
       style="fill:#4d4d4d;fill-opacity:1;stroke:none"
       id="rect4035-59-4"
       width="0"
       height="10.999983"
       x="410.57404"
       y="535.0567" />
    <text
       sodipodi:linespacing="125%"
       id="text3781-3"
       y="547.81396"
       x="426.01001"
       style="font-style:normal;font-weight:normal;font-size:9px;line-height:125%;font-family:Sans;letter-spacing:0px;word-spacing:0px;fill:#4d4d4d;fill-opacity:1;stroke:none"
       xml:space="preserve"><tspan
         id="tspan3783-8"
         sodipodi:role="line"
         x="426.01001"
         y="547.81396" /></text>
    <text
       sodipodi:linespacing="125%"
       id="text3781-8-5"
       y="541.95062"
       x="426.7467"
       style="font-style:normal;font-weight:normal;font-size:9px;line-height:125%;font-family:Sans;letter-spacing:0px;word-spacing:0px;fill:#4d4d4d;fill-opacity:1;stroke:none"
       xml:space="preserve"><tspan
         id="tspan3783-1-7"
         sodipodi:role="line"
         x="426.7467"
         y="541.95062" /></text>
    <text
       sodipodi:linespacing="125%"
       id="text3781-4-0"
       y="548.81396"
       x="420.01001"
       style="font-style:normal;font-weight:normal;font-size:9px;line-height:125%;font-family:Sans;letter-spacing:0px;word-spacing:0px;fill:#4d4d4d;fill-opacity:1;stroke:none"
       xml:space="preserve"><tspan
         id="tspan3783-13-3"
         sodipodi:role="line"
         x="420.01001"
         y="548.81396" /></text>
    <rect
       style="fill:#4d4d4d;fill-opacity:1;stroke:none"
       id="rect4035-9-6"
       width="0"
       height="10.999983"
       x="410.57404"
       y="535.0567" />
    <rect
       style="fill:#4d4d4d;fill-opacity:1;stroke:none"
       id="rect4035-5-7-3"
       width="0"
       height="10.999983"
       x="428.61481"
       y="533.00537" />
    <rect
       style="fill:#4d4d4d;fill-opacity:1;stroke:none"
       id="rect4035-9-0-7"
       width="0"
       height="10.999983"
       x="390.57404"
       y="535.0567" />
    <rect
       style="fill:#4d4d4d;fill-opacity:1;stroke:none"
       id="rect4035-5-7-5-3"
       width="0"
       height="10.999983"
       x="408.61481"
       y="533.00537" />
    <rect
       style="fill:#4d4d4d;fill-opacity:1;stroke:none"
       id="rect4035-90-7"
       width="0"
       height="10.999983"
       x="408.71429"
       y="512.79071" />
  </g>
</svg>

<?xml version="1.0" encoding="UTF-8" standalone="no"?>
<!-- Created with Inkscape (http://www.inkscape.org/) -->
<svg id="svg3049" xmlns:rdf="http://www.w3.org/1999/02/22-rdf-syntax-ns#" xmlns="http://www.w3.org/2000/svg" height="16" width="16" version="1.1" xmlns:cc="http://creativecommons.org/ns#" xmlns:dc="http://purl.org/dc/elements/1.1/">
 <defs id="defs3051">
  <style id="current-color-scheme" type="text/css">.ColorScheme-Text {
        color:#4d4d4d;
      }
      .ColorScheme-Background {
        color:#eff0f1;
      }
      .ColorScheme-Highlight {
        color:#3daee9;
      }
      .ColorScheme-ViewText {
        color:#31363b;
      }
      .ColorScheme-ViewBackground {
        color:#fcfcfc;
      }
      .ColorScheme-ViewHover {
        color:#93cee9;
      }
      .ColorScheme-ViewFocus{
        color:#3daee9;
      }
      .ColorScheme-ButtonText {
        color:#31363b;
      }
      .ColorScheme-ButtonBackground {
        color:#eff0f1;
      }
      .ColorScheme-ButtonHover {
        color:#93cee9;
      }
      .ColorScheme-ButtonFocus{
        color:#3daee9;
      }</style>
  <style id="current-color-scheme-6" type="text/css">.ColorScheme-Text {
        color:#4d4d4d;
      }
      .ColorScheme-Background {
        color:#eff0f1;
      }
      .ColorScheme-Highlight {
        color:#3daee9;
      }
      .ColorScheme-ViewText {
        color:#31363b;
      }
      .ColorScheme-ViewBackground {
        color:#fcfcfc;
      }
      .ColorScheme-ViewHover {
        color:#93cee9;
      }
      .ColorScheme-ViewFocus{
        color:#3daee9;
      }
      .ColorScheme-ButtonText {
        color:#31363b;
      }
      .ColorScheme-ButtonBackground {
        color:#eff0f1;
      }
      .ColorScheme-ButtonHover {
        color:#93cee9;
      }
      .ColorScheme-ButtonFocus{
        color:#3daee9;
      }</style>
  <style id="current-color-scheme-8" type="text/css">.ColorScheme-Text {
        color:#4d4d4d;
      }
      .ColorScheme-Background {
        color:#eff0f1;
      }
      .ColorScheme-Highlight {
        color:#3daee9;
      }
      .ColorScheme-ViewText {
        color:#31363b;
      }
      .ColorScheme-ViewBackground {
        color:#fcfcfc;
      }
      .ColorScheme-ViewHover {
        color:#93cee9;
      }
      .ColorScheme-ViewFocus{
        color:#3daee9;
      }
      .ColorScheme-ButtonText {
        color:#31363b;
      }
      .ColorScheme-ButtonBackground {
        color:#eff0f1;
      }
      .ColorScheme-ButtonHover {
        color:#93cee9;
      }
      .ColorScheme-ButtonFocus{
        color:#3daee9;
      }</style>
 </defs>
 <metadata id="metadata3054">
  <rdf:RDF>
   <cc:Work rdf:about="">
    <dc:format>image/svg+xml</dc:format>
    <dc:type rdf:resource="http://purl.org/dc/dcmitype/StillImage"/>
    <dc:title/>
   </cc:Work>
  </rdf:RDF>
 </metadata>
 <g id="layer1" transform="translate(-421.71 -531.79)">
  <rect id="rect4035" height="11" width="0" y="534.79" x="417.71" fill="#4d4d4d"/>
  <rect id="rect4035-2" height="11" width="0" y="535.06" x="411.57" fill="#4d4d4d"/>
  <rect id="rect4035-5" height="11" width="0" y="533.01" x="429.61" fill="#4d4d4d"/>
  <rect id="rect4035-8" height="11" width="0" y="535.06" x="411.57" fill="#4d4d4d"/>
  <rect id="rect4035-59" height="11" width="0" y="535.06" x="411.57" fill="#4d4d4d"/>
  <text id="text3781" style="word-spacing:0px;letter-spacing:0px" xml:space="preserve" font-size="9px" y="547.8139" x="427.01004" font-family="Sans" line-height="125%" fill="#4d4d4d"><tspan id="tspan3783" y="547.8139" x="427.01004"/></text>
  <text id="text3781-8" style="word-spacing:0px;letter-spacing:0px" xml:space="preserve" font-size="9px" y="541.95062" x="427.74673" font-family="Sans" line-height="125%" fill="#4d4d4d"><tspan id="tspan3783-1" y="541.95062" x="427.74673"/></text>
  <text id="text3781-4" style="word-spacing:0px;letter-spacing:0px" xml:space="preserve" font-size="9px" y="548.81396" x="421.01004" font-family="Sans" line-height="125%" fill="#4d4d4d"><tspan id="tspan3783-13" y="548.81396" x="421.01004"/></text>
  <rect id="rect4035-9" height="11" width="0" y="535.06" x="411.57" fill="#4d4d4d"/>
  <rect id="rect4035-5-7" height="11" width="0" y="533.01" x="429.61" fill="#4d4d4d"/>
  <rect id="rect4035-9-0" height="11" width="0" y="535.06" x="391.57" fill="#4d4d4d"/>
  <rect id="rect4035-5-7-5" height="11" width="0" y="533.01" x="409.61" fill="#4d4d4d"/>
  <rect id="rect4035-90" height="11" width="0" y="512.79" x="409.71" fill="#4d4d4d"/>
  <path id="rect4163" opacity=".5" d="m4.5 2l-2.5 3h5l-2.5-3zm4.5 3v6 3h1v-0.77a3 3 0 0 0 2 0.77 3 3 0 0 0 3 -3 3 3 0 0 0 -3 -3 3 3 0 0 0 -2 0.7676v-3.7676h-1zm-5.1133 1l-2.8867 8h1.166l0.9942-2.285h2.7793l0.8945 2.285h1.166l-2.6445-8h-1.4688zm0.7344 1.2402l1.0937 3.3318h-2.3027l1.209-3.3318zm7.3789 1.7598a2 2 0 0 1 2 2 2 2 0 0 1 -2 2 2 2 0 0 1 -2 -2 2 2 0 0 1 2 -2z" transform="translate(421.71 531.79)"/>
  <rect id="rect4035-7" height="11" width="0" y="534.79" x="416.71" fill="#4d4d4d"/>
  <rect id="rect4035-2-5" height="11" width="0" y="535.06" x="410.57" fill="#4d4d4d"/>
  <rect id="rect4035-5-3" height="11" width="0" y="533.01" x="428.61" fill="#4d4d4d"/>
  <rect id="rect4035-8-9" height="11" width="0" y="535.06" x="410.57" fill="#4d4d4d"/>
  <rect id="rect4035-59-4" height="11" width="0" y="535.06" x="410.57" fill="#4d4d4d"/>
  <text id="text3781-3" style="word-spacing:0px;letter-spacing:0px" line-height="125%" font-size="9px" y="547.81396" x="426.01001" font-family="Sans" xml:space="preserve" fill="#4d4d4d"><tspan id="tspan3783-8" x="426.01001" y="547.81396"/></text>
  <text id="text3781-8-5" style="word-spacing:0px;letter-spacing:0px" line-height="125%" font-size="9px" y="541.95062" x="426.7467" font-family="Sans" xml:space="preserve" fill="#4d4d4d"><tspan id="tspan3783-1-7" x="426.7467" y="541.95062"/></text>
  <text id="text3781-4-0" style="word-spacing:0px;letter-spacing:0px" line-height="125%" font-size="9px" y="548.81396" x="420.01001" font-family="Sans" xml:space="preserve" fill="#4d4d4d"><tspan id="tspan3783-13-3" x="420.01001" y="548.81396"/></text>
  <rect id="rect4035-9-6" height="11" width="0" y="535.06" x="410.57" fill="#4d4d4d"/>
  <rect id="rect4035-5-7-3" height="11" width="0" y="533.01" x="428.61" fill="#4d4d4d"/>
  <rect id="rect4035-9-0-7" height="11" width="0" y="535.06" x="390.57" fill="#4d4d4d"/>
  <rect id="rect4035-5-7-5-3" height="11" width="0" y="533.01" x="408.61" fill="#4d4d4d"/>
  <rect id="rect4035-90-7" height="11" width="0" y="512.79" x="408.71" fill="#4d4d4d"/>
 </g>
</svg>
